X:1
T:The Precious Sunlight
T:The Precious Sunlight
T:Barney E. Warren, pub.1911
T:B. E. W.
T:PUBLIC DOMAIN
T:PUBLIC DOMAIN
C:Barney E. Warren, pub.1911
Z:B. E. W.
Z:PUBLIC DOMAIN
%%score ( 1 2 ) ( 3 4 )
L:1/8
Q:1/4=100
M:4/4
K:A
V:1 treble nm="Treble"
V:2 treble 
V:3 bass nm="Bass"
V:4 bass 
V:1
"^Lively" [Ec]3/2 [DB]/ [CA]3/2 [DF]/ [CE]3/2 [CE]/ [CA]3/2 [DB]/ | %1
w: 1.~Praise the Lord, there’s sun- light in my|
w: 2.~Praise the Lord, there’s sing- ing in my|
w: 3.~Praise the Lord, there’s spring- time in my|
w: 4.~Praise the Lord, there’s sweet- ness in my|
w: 5.~Praise the Lord, there’s glad- ness in my|
 [Ec]3/2 [DB]/ [CA]3/2 [DF]/ [CE]2 [CE]3/2 E/ | [DF]2 [Fd]2 [Ec]2 [EB]2 | [Ec]6 z2 | %4
w: hap- py soul to- day, Bright- er|than the glo- rious|noon;|
w: hap- py soul to- day, Pre- cious|mus- ic to my|Lord,|
w: hap- py soul to- day, All is|ev- er- green and|fair,|
w: hap- py soul to- day, “Taste and|see the Lord is|good”;|
w: hap- py soul to- day, Oh, what|pleas- ure I have|found!|
 [Ec]3/2 [DB]/ [CA]3/2 [DF]/ [CE]3/2 [CE]/ [CA]3/2 [DB]/ | %5
w: Christ, the Light, is shin- ing in my|
w: Cheer- ing me with rap- ture as I|
w: Where the flow’rs are bloom- ing and the|
w: For His peace and glo- ry I would|
w: From His sac- red pres- ence I would|
 [Ec]3/2 [DB]/ [CA]3/2 [DF]/ [CE]2 [Ec]3/2 [Ec]/ | [EB]2 [EB]2 [Ac]2 [A^d]2 | (e4 d4) || %8
w: heart and on the way, I shall|rise to glo- ry|soon. *|
w: pass a- long the way, Sing, oh,|sing in sweet ac-|cord. *|
w: dove of peace doth stay, Oh, what|treas- ures rich and|rare! *|
w: ev- er live, and pray That my|life be as it|should. *|
w: nev- er, nev- er stray, In His|love I would a-|bound. *|
"^Refrain" [Ec]3/2 [Ec]/ [Ec]3/2 [DB]/ [CA]2 [CE]2 | [DF]3/2 [DF]/ [DF]3/2 [FA]/ [Fd]2 [DF]2 | %10
w: Oh, the pre- cious sun- light,|Oh, the pre- cious sun- light,|
w: ||
w: ||
w: ||
w: ||
 [CE]3/2 [CE]/ [EA]3/2 [EB]/ [Ec]3/2 [Ec]/ [Ee]3/2 [Ec]/ | [EB]6 | [EA]3/2 [EB]/ | %13
w: Shin- ing as the morn- ing in my|soul|Let its|
w: |||
w: |||
w: |||
w: |||
 [Ec]2 [Ee]2 [EA]2 [Ec]2 | [FB] [FA] [DF] [DA] [CE]2 [Ec]3/2 [Ge]/ | [Fd]2 [DF]2 [DE]2 [DG]2 | %16
w: crys- tal rays in-|spire our hearts with praise; Oh, there’s|sun- light in my|
w: |||
w: |||
w: |||
w: |||
 [CA]6 z2 |] %17
w: soul!|
w: |
w: |
w: |
w: |
V:2
 x8 | z4 z2 z3/2 E/ | x8 | x8 | x8 | x8 | x8 | G8 || x8 | x8 | x8 | x6 | x2 | x8 | x8 | x8 | x8 |] %17
V:3
 [A,,A,]3/2 [A,,A,]/ [A,,A,]3/2 [A,,A,]/ [A,,A,]3/2 [A,,A,]/ [A,,E,]3/2 [A,,E,]/ | %1
 [A,,A,]3/2 [A,,A,]/ [A,,A,]3/2 [A,,A,]/ [A,,A,]2 [A,,A,]3/2 [C,A,]/ | %2
 [D,A,]2 [D,A,]2 [E,A,]2 [E,G,]2 | [A,,A,]6 z2 | %4
 [A,,A,]3/2 [A,,A,]/ [A,,A,]3/2 [A,,A,]/ [A,,A,]3/2 [A,,A,]/ [A,,E,]3/2 [A,,E,]/ | %5
 [A,,A,]3/2 [A,,A,]/ [A,,A,]3/2 [A,,A,]/ [A,,A,]2 [A,,A,]3/2 [A,,A,]/ | %6
 [B,,G,]2 [B,,G,]2 [B,,B,]2 [B,,B,]2 | [E,B,]8 || %8
 [A,,A,]3/2 [A,,A,]/ [A,,A,]3/2 [A,,E,]/ [A,,E,]2 [A,,A,]2 | %9
 [D,A,]3/2 [D,A,]/ [D,A,]3/2 [D,A,]/ [D,A,]2 [D,A,]2 | %10
 [A,,A,]3/2 [A,,A,]/ [C,A,]3/2 [E,G,]/ A,3/2 A,/ [G,B,]3/2 A,/ | G,6 | [C,A,]3/2 [B,,G,]/ | %13
 [A,,A,]2 [A,,C]2 [A,,C]2 [A,,A,]2 | [D,A,] [D,A,] [D,A,] [F,A,] A,2 A,3/2 [C,A,]/ | %15
 [D,A,]2 [D,A,]2 [E,G,]2 [E,B,]2 | [A,,A,]6 z2 |] %17
V:4
 x8 | x8 | x8 | x8 | x8 | x8 | x8 | x8 || x8 | x8 | z4 A,3/2 A,/ z3/2 A,/ | E,2 E,3/2 E,/ (E, D,) | %12
w: |||||||||||* (in my soul); *|
 z2 | x8 | z4 A,2 A,3/2 z/ | x8 | x8 |] %17
w: |||||

